X:1
T:Pas d't
C:Trad. Poitou, appris de Benoit Guerbigny et Christian Pacher, fichier abc : Bernard Loffet
L:1/8
Q:350
M:2/2
K:C
 z4 [c'C,,]b[c'C,]a |: [g2E,,2]E,2 [eE,,]f[gE,]e | [c2A,,2]A,2 [dA,,]c[BA,]c | [dD,,]e[fD,]g [aG,,]g[^fG,]g | \
 [e2C,,2][c2C,2] [c'C,,]b[c'C,]a | [g2E,,2]E,2 [eE,,]f[gE,]e | [c2A,,2]A,2 [dA,,]c[BA,]c | \
 [dD,,]e[fD,]g [aG,,]g[aG,]b |1 [c'2C,,2]C,2 [c'C,,]b[c'C,]a :|2 [c'2C,,2]C,2 [c2C,,2][GC,]c | \
 [e2C,,2][c2C,2] [e2C,,2][d2G,2] | [BG,,]c[dG,]B [c2C,,2][cC,]B | [c2C,,2][GC,]c [e2C,,2][c2C,2] | \
 [e2C,,2][d2G,2] [BG,,]c[dG,]B | [c2C,,2]C,2 [c2C,,2][GC,]c | [e2C,,2][c2C,2] [e2C,,2][d2G,2] | \
 [BG,,]c[dG,]B [c2C,,2][cC,]B | [c2C,,2][GC,]c [e2C,,2][c2C,2] | [e2C,,2][d2G,2] [BG,,]c[dG,]B | \
 [c2C,,2]C,6 | \
Z:Created with TablEdit http://www.tabledit.com/ by Bernard Loffet
